Gurmukhi/0A02.svg

<svg enable-background="new 0 0 336 592" viewBox="0 0 336 592" xmlns="http://www.w3.org/2000/svg"><path d="m209.203796 138.661194c13.627884.176132 21.029419 8.263428 19.220887 20.51062-1.309006 8.864639-8.065964 14.293793-17.587799 14.131683-9.115677-.155197-16.220261-6.358535-17.120484-14.948623-1.13269-10.808594 4.192597-17.775635 15.487396-19.69368z"/><path d="m123.513168 273.107208c-3.2183 5.163147-7.103859 6.833893-11.265869 4.80719-3.756691-1.829315-5.88018-4.817261-4.95076-9.238678 1.023568-4.869262 5.233719-7.739502 9.892441-6.848297 4.927239.942597 7.441879 5.184723 6.324188 11.279785z"/><path d="m245.437988 275.224609c-3.311355 3.74701-7.127823 4.384095-10.999679 2.314789-3.269928-1.747619-5.002091-4.790344-4.16684-8.744201.752304-3.56128 2.880097-5.956116 6.427704-6.828797 3.346909-.823303 6.258591.189453 8.465546 2.826355 2.678451 3.200195 2.632904 6.627319.273269 10.431854z"/><path d="m117.275223 300.12738c-3.13176 3.748932-6.719712 4.927124-10.826752 2.843659-3.378014-1.713623-5.204048-4.633881-4.672745-8.562042.518952-3.836884 2.766106-6.337616 6.527611-7.275422 3.151695-.785797 5.931954.115082 8.120529 2.503998 2.835312 3.09494 2.6633 6.569855.851357 10.489807z"/><path d="m226.516556 239.818176c4.591629 1.646698 7.028198 4.566193 6.430084 9.127716-.485977 3.706314-2.645401 6.414856-6.514709 7.220063-3.981492.828552-7.155411-.528366-9.346344-3.98317-1.80037-2.838959-1.331162-5.72496.175628-8.462448 1.917786-3.484192 5.072739-4.483597 9.255341-3.902161z"/><path d="m180.874069 220.876755c4.455902 2.546875 5.233902 6.275345 4.1138 10.434204-.968292 3.59523-3.900635 5.267258-7.390396 5.685577-3.480667.417252-6.053528-1.348694-7.767624-4.265686-1.859649-3.164657-1.660644-6.432251.539368-9.285675 2.598877-3.370804 6.089096-4.314743 10.504852-2.56842z"/><path d="m241.733124 303.510498c-7.542511-2.361816-7.604035-11.755524-2.738587-14.954346 3.448166-2.266998 6.911759-2.36795 10.218109.127533 3.39444 2.561982 3.98137 6.216553 2.56987 9.885804-1.641311 4.266693-5.135803 5.879852-10.049392 4.941009z"/><path d="m111.452454 313.225647c6.092987-2.009583 10.176231-.362183 12.111572 4.550751 1.559479 3.958801-.278725 8.519775-4.215256 10.45877-4.098244 2.018677-8.828667.537446-11.164863-3.496032-2.189782-3.780701-1.208306-7.561829 3.268547-11.513489z"/><path d="m122.550018 347.311096c-2.066742-5.630371-1.231666-9.431488 2.606652-11.573639 3.638359-2.030517 7.391395-2.05542 10.47657 1.083832 3.177185 3.23288 3.567978 6.997192 1.014404 10.838989-3.205566 4.822724-9.232422 4.777741-14.097626-.349182z"/><path d="m215.972137 343.709229c.296616-4.968812 2.145859-8.373841 7.11203-9.084992 4.815583-.689606 8.71402 1.882782 9.843003 6.330048.925491 3.645691-1.486405 8.185821-5.170777 9.733368-4.070236 1.709625-8.190704.249725-10.605712-3.833435-.498185-.842377-.749543-1.830719-1.178544-3.144989z"/><path d="m210.394638 359.186188c-3.052948 5.847473-7.744888 7.718933-12.224121 5.221435-4.34111-2.420471-5.669663-7.72287-3.014008-12.026947 2.392029-3.876831 6.128464-4.658416 9.976471-3.381256 4.481064 1.487274 6.327835 5.027802 5.261658 10.186768z"/><path d="m232.591721 314.592316c3.654983-2.832062 7.256546-3.374298 10.849701-.952912 2.620117 1.765686 4.093093 4.462769 3.672927 7.665802-.45932 3.501374-2.371383 6.127808-5.862655 7.353241-3.803955 1.335144-6.861237.009522-9.266007-2.887481-3.032852-3.653626-2.210953-7.342682.606034-11.17865z"/><path d="m193.789062 234.806671c.121827-4.382126 1.647034-7.64946 5.632706-8.806625 3.471726-1.007981 6.95192-.558899 9.486542 2.506317 2.209259 2.671783 2.541916 5.77359 1.127243 8.827469-1.496521 3.23053-4.136093 5.07698-7.871429 4.978088-4.687211-.124115-7.122239-2.894913-8.375062-7.505249z"/><path d="m185.319855 361.189117c-.356446 6.253418-3.330521 9.609284-8.218109 9.709443-3.877091.079467-7.749543-3.284668-8.331391-7.237702-.643493-4.371979 1.918015-8.341247 6.185822-9.585296 4.544388-1.324677 8.607101 1.302154 10.363678 7.113555z"/><path d="m126.687401 255.936005c-4.479325-2.483933-6.377815-5.84195-4.930214-10.5448 1.089119-3.538254 3.578689-5.457031 7.328384-5.718628 4.206497-.293472 6.940262 1.677765 8.627945 5.398865 2.174866 4.795211-2.22409 13.19577-11.026115 10.864563z"/><path d="m147.975433 241.458832c-4.232376-2.774582-5.183166-6.484329-3.902038-10.662659.948959-3.094849 3.387985-4.789993 6.699524-5.126449 3.655105-.371354 6.570862.825912 8.450378 4.02835 1.756455 2.992783 1.675141 6.137955-.309235 8.922333-2.640045 3.704376-6.323913 4.551819-10.938629 2.838425z"/><path d="m158.506287 351.63324c2.932769 4.425262 2.31137 8.303344-1.036087 11.570068-2.791565 2.724274-6.321183 2.914429-9.680497 1.087128-3.669174-1.995911-4.718856-5.412323-4.018936-9.363434 1.152588-6.506683 8.501526-8.317139 14.73552-3.293762z"/></svg>

<svg version="1.1" id="Layer_1" xmlns="http://www.w3.org/2000/svg" xmlns:xlink="http://www.w3.org/1999/xlink" x="0px" y="0px"
	 width="100%" viewBox="0 0 336 592" enable-background="new 0 0 336 592" xml:space="preserve">
<path fill="#000000" opacity="1.000000" stroke="none" 
	d="
M209.203796,138.661194 
	C222.831680,138.837326 230.233215,146.924622 228.424683,159.171814 
	C227.115677,168.036453 220.358719,173.465607 210.836884,173.303497 
	C201.721207,173.148300 194.616623,166.944962 193.716400,158.354874 
	C192.583710,147.546280 197.908997,140.579239 209.203796,138.661194 
z"/>
<path fill="#000000" opacity="1.000000" stroke="none" 
	d="
M123.513168,273.107208 
	C120.294868,278.270355 116.409309,279.941101 112.247299,277.914398 
	C108.490608,276.085083 106.367119,273.097137 107.296539,268.675720 
	C108.320107,263.806458 112.530258,260.936218 117.188980,261.827423 
	C122.116219,262.770020 124.630859,267.012146 123.513168,273.107208 
z"/>
<path fill="#000000" opacity="1.000000" stroke="none" 
	d="
M245.437988,275.224609 
	C242.126633,278.971619 238.310165,279.608704 234.438309,277.539398 
	C231.168381,275.791779 229.436218,272.749054 230.271469,268.795197 
	C231.023773,265.233917 233.151566,262.839081 236.699173,261.966400 
	C240.046082,261.143097 242.957764,262.155853 245.164719,264.792755 
	C247.843170,267.992950 247.797623,271.420074 245.437988,275.224609 
z"/>
<path fill="#000000" opacity="1.000000" stroke="none" 
	d="
M117.275223,300.127380 
	C114.143463,303.876312 110.555511,305.054504 106.448471,302.971039 
	C103.070457,301.257416 101.244423,298.337158 101.775726,294.408997 
	C102.294678,290.572113 104.541832,288.071381 108.303337,287.133575 
	C111.455032,286.347778 114.235291,287.248657 116.423866,289.637573 
	C119.259178,292.732513 119.087166,296.207428 117.275223,300.127380 
z"/>
<path fill="#000000" opacity="1.000000" stroke="none" 
	d="
M226.516556,239.818176 
	C231.108185,241.464874 233.544754,244.384369 232.946640,248.945892 
	C232.460663,252.652206 230.301239,255.360748 226.431931,256.165955 
	C222.450439,256.994507 219.276520,255.637589 217.085587,252.182785 
	C215.285217,249.343826 215.754425,246.457825 217.261215,243.720337 
	C219.179001,240.236145 222.333954,239.236740 226.516556,239.818176 
z"/>
<path fill="#000000" opacity="1.000000" stroke="none" 
	d="
M180.874069,220.876755 
	C185.329971,223.423630 186.107971,227.152100 184.987869,231.310959 
	C184.019577,234.906189 181.087234,236.578217 177.597473,236.996536 
	C174.116806,237.413788 171.543945,235.647842 169.829849,232.730850 
	C167.970200,229.566193 168.169205,226.298599 170.369217,223.445175 
	C172.968094,220.074371 176.458313,219.130432 180.874069,220.876755 
z"/>
<path fill="#000000" opacity="1.000000" stroke="none" 
	d="
M241.733124,303.510498 
	C234.190613,301.148682 234.129089,291.754974 238.994537,288.556152 
	C242.442703,286.289154 245.906296,286.188202 249.212646,288.683685 
	C252.607086,291.245667 253.194016,294.900238 251.782516,298.569489 
	C250.141205,302.836182 246.646713,304.449341 241.733124,303.510498 
z"/>
<path fill="#000000" opacity="1.000000" stroke="none" 
	d="
M111.452454,313.225647 
	C117.545441,311.216064 121.628685,312.863464 123.564026,317.776398 
	C125.123505,321.735199 123.285301,326.296173 119.348770,328.235168 
	C115.250526,330.253845 110.520103,328.772614 108.183907,324.739136 
	C105.994125,320.958435 106.975601,317.177307 111.452454,313.225647 
z"/>
<path fill="#000000" opacity="1.000000" stroke="none" 
	d="
M122.550018,347.311096 
	C120.483276,341.680725 121.318352,337.879608 125.156670,335.737457 
	C128.795029,333.706940 132.548065,333.682037 135.633240,336.821289 
	C138.810425,340.054169 139.201218,343.818481 136.647644,347.660278 
	C133.442078,352.483002 127.415222,352.438019 122.550018,347.311096 
z"/>
<path fill="#000000" opacity="1.000000" stroke="none" 
	d="
M215.972137,343.709229 
	C216.268753,338.740417 218.117996,335.335388 223.084167,334.624237 
	C227.899750,333.934631 231.798187,336.507019 232.927170,340.954285 
	C233.852661,344.599976 231.440765,349.140106 227.756393,350.687653 
	C223.686157,352.397278 219.565689,350.937378 217.150681,346.854218 
	C216.652496,346.011841 216.401138,345.023499 215.972137,343.709229 
z"/>
<path fill="#000000" opacity="1.000000" stroke="none" 
	d="
M210.394638,359.186188 
	C207.341690,365.033661 202.649750,366.905121 198.170517,364.407623 
	C193.829407,361.987152 192.500854,356.684753 195.156509,352.380676 
	C197.548538,348.503845 201.284973,347.722260 205.132980,348.999420 
	C209.614044,350.486694 211.460815,354.027222 210.394638,359.186188 
z"/>
<path fill="#000000" opacity="1.000000" stroke="none" 
	d="
M232.591721,314.592316 
	C236.246704,311.760254 239.848267,311.218018 243.441422,313.639404 
	C246.061539,315.405090 247.534515,318.102173 247.114349,321.305206 
	C246.655029,324.806580 244.742966,327.433014 241.251694,328.658447 
	C237.447739,329.993591 234.390457,328.667969 231.985687,325.770966 
	C228.952835,322.117340 229.774734,318.428284 232.591721,314.592316 
z"/>
<path fill="#000000" opacity="1.000000" stroke="none" 
	d="
M193.789062,234.806671 
	C193.910889,230.424545 195.436096,227.157211 199.421768,226.000046 
	C202.893494,224.992065 206.373688,225.441147 208.908310,228.506363 
	C211.117569,231.178146 211.450226,234.279953 210.035553,237.333832 
	C208.539032,240.564362 205.899460,242.410812 202.164124,242.311920 
	C197.476913,242.187805 195.041885,239.417007 193.789062,234.806671 
z"/>
<path fill="#000000" opacity="1.000000" stroke="none" 
	d="
M185.319855,361.189117 
	C184.963409,367.442535 181.989334,370.798401 177.101746,370.898560 
	C173.224655,370.978027 169.352203,367.613892 168.770355,363.660858 
	C168.126862,359.288879 170.688370,355.319611 174.956177,354.075562 
	C179.500565,352.750885 183.563278,355.377716 185.319855,361.189117 
z"/>
<path fill="#000000" opacity="1.000000" stroke="none" 
	d="
M126.687401,255.936005 
	C122.208076,253.452072 120.309586,250.094055 121.757187,245.391205 
	C122.846306,241.852951 125.335876,239.934174 129.085571,239.672577 
	C133.292068,239.379105 136.025833,241.350342 137.713516,245.071442 
	C139.888382,249.866653 135.489426,258.267212 126.687401,255.936005 
z"/>
<path fill="#000000" opacity="1.000000" stroke="none" 
	d="
M147.975433,241.458832 
	C143.743057,238.684250 142.792267,234.974503 144.073395,230.796173 
	C145.022354,227.701324 147.461380,226.006180 150.772919,225.669724 
	C154.428024,225.298370 157.343781,226.495636 159.223297,229.698074 
	C160.979752,232.690857 160.898438,235.836029 158.914062,238.620407 
	C156.274017,242.324783 152.590149,243.172226 147.975433,241.458832 
z"/>
<path fill="#000000" opacity="1.000000" stroke="none" 
	d="
M158.506287,351.633240 
	C161.439056,356.058502 160.817657,359.936584 157.470200,363.203308 
	C154.678635,365.927582 151.149017,366.117737 147.789703,364.290436 
	C144.120529,362.294525 143.070847,358.878113 143.770767,354.927002 
	C144.923355,348.420319 152.272293,346.609863 158.506287,351.633240 
z"/>
</svg>
